src/lib/packages/icons/src/assets/line/shopping-basket-heart.svg

<svg width="24" height="24" viewBox="0 0 24 24" fill="none" xmlns="http://www.w3.org/2000/svg">
<path d="M21.75 9C21.75 7.483 20.517 6.25 19 6.25H16.957L14.795 2.616C14.583 2.262 14.124 2.142 13.767 2.355C13.412 2.567 13.294 3.027 13.506 3.383L15.2111 6.24899H9.06006L10.791 3.387C11.006 3.033 10.892 2.572 10.538 2.357C10.182 2.142 9.72106 2.256 9.50806 2.61L7.30701 6.248H5C3.483 6.248 2.25 7.481 2.25 8.998C2.25 10.087 2.89101 11.022 3.81201 11.467L4.50195 18.371C4.72895 20.643 5.94903 21.748 8.23303 21.748H15.803C18.087 21.748 19.3081 20.644 19.5341 18.371L20.226 11.446C21.126 10.995 21.75 10.073 21.75 9ZM5 7.75H19C19.689 7.75 20.25 8.311 20.25 9C20.25 9.689 19.689 10.25 19 10.25H5C4.311 10.25 3.75 9.689 3.75 9C3.75 8.311 4.311 7.75 5 7.75ZM18.043 18.224C17.914 19.507 17.507 20.25 15.804 20.25H8.23401C6.52201 20.25 6.127 19.538 5.995 18.224L5.34802 11.75H18.691L18.043 18.224ZM13.33 12.417C12.777 12.398 12.329 12.617 12 12.892C11.672 12.618 11.233 12.398 10.67 12.417C9.92304 12.42 9.29405 12.708 8.85205 13.247C8.32505 13.89 8.13104 14.819 8.32104 15.798C8.78005 18.167 11.5719 19.462 11.6899 19.516C11.7889 19.561 11.894 19.583 12.001 19.583C12.108 19.583 12.213 19.561 12.312 19.516C12.43 19.462 15.222 18.167 15.681 15.798C15.871 14.819 15.678 13.889 15.151 13.247C14.707 12.707 14.078 12.42 13.33 12.417ZM14.207 15.512C13.968 16.748 12.62 17.638 12 17.988C11.38 17.638 10.032 16.748 9.79297 15.512C9.69097 14.99 9.77499 14.487 10.011 14.199C10.165 14.011 10.384 13.919 10.678 13.918C10.679 13.918 10.68 13.918 10.681 13.918C11.1 13.918 11.274 14.359 11.288 14.4C11.391 14.707 11.677 14.914 12 14.914C12.323 14.914 12.609 14.707 12.712 14.4C12.713 14.395 12.891 13.921 13.322 13.918C13.617 13.919 13.836 14.011 13.99 14.199C14.226 14.485 14.309 14.989 14.207 15.512Z" fill="currentColor"/>
</svg>

<svg xmlns="http://www.w3.org/2000/svg" width="24" height="24" fill="none"><path fill="currentColor" d="M21.75 9A2.752 2.752 0 0 0 19 6.25h-2.043l-2.162-3.634a.75.75 0 0 0-1.289.767l1.705 2.866h-6.15l1.73-2.862a.75.75 0 0 0-1.283-.777L7.307 6.248H5a2.752 2.752 0 0 0-2.75 2.75c0 1.089.641 2.024 1.562 2.469l.69 6.904c.227 2.272 1.447 3.377 3.731 3.377h7.57c2.284 0 3.505-1.104 3.731-3.377l.692-6.925A2.738 2.738 0 0 0 21.75 9ZM5 7.75h14c.689 0 1.25.561 1.25 1.25s-.561 1.25-1.25 1.25H5c-.689 0-1.25-.561-1.25-1.25S4.311 7.75 5 7.75Zm13.043 10.474c-.129 1.283-.536 2.026-2.239 2.026h-7.57c-1.712 0-2.107-.712-2.239-2.026l-.647-6.474h13.343l-.648 6.474Zm-4.713-5.807a1.947 1.947 0 0 0-1.33.475 1.932 1.932 0 0 0-1.33-.475c-.747.003-1.376.291-1.818.83-.527.643-.721 1.572-.531 2.551.459 2.369 3.25 3.664 3.369 3.718a.748.748 0 0 0 .622 0c.118-.054 2.91-1.349 3.369-3.718.19-.979-.003-1.909-.53-2.551-.444-.54-1.073-.827-1.821-.83Zm.877 3.095c-.239 1.236-1.587 2.126-2.207 2.476-.62-.35-1.968-1.24-2.207-2.476-.102-.522-.018-1.025.218-1.313.154-.188.373-.28.667-.281h.003c.419 0 .593.441.607.482a.751.751 0 0 0 1.424 0c.001-.005.179-.479.61-.482.295.001.514.093.668.281.236.286.319.79.217 1.313Z"/></svg>
